svg/neta_brix.svg

<svg fill="none" height="15" viewBox="0 0 13 15" width="13" xmlns="http://www.w3.org/2000/svg" xmlns:xlink="http://www.w3.org/1999/xlink"><linearGradient id="a"><stop offset="0" stop-color="#ffccaf"/><stop offset=".98" stop-color="#fa4671"/></linearGradient><linearGradient id="b" gradientUnits="userSpaceOnUse" x1="1.89194" x2="12.1102" xlink:href="#a" y1="2.93435" y2="10.6377"/><linearGradient id="c" gradientUnits="userSpaceOnUse" x1="4.80798" x2="9.0045" xlink:href="#a" y1="5.41928" y2="8.35367"/><path d="m6.5 14.4322c-.32947.0023-.65369-.0826-.93969-.2462l-4.620619-2.67c-.285559-.1649-.522729-.402-.687669-.6875-.1649405-.2855-.25185234-.6094-.25201992-.93912v-5.33998c-.00049134-.32986.08614332-.65401.25114892-.93964.165006-.28563.402538-.52261.68854-.68697l4.620619-2.669999c.28548-.1655857.60966-.252791.93969-.252791s.65421.0872053.93969.252791l4.62061 2.669999c.286.16436.5235.40134.6885.68697.1651.28563.2517.60978.2512.93964v5.33998c-.0002.32972-.0871.65362-.252.93912-.165.2855-.4021.5226-.6877.6875l-4.62061 2.67c-.286.1636-.61022.2485-.93969.2462zm0-13.26565c-.12537-.0001-.24846.03347-.35642.09722l-4.62064 2.66998c-.10857.06192-.19876.15153-.26138.25968-.06262.10816-.09543.231-.09507.35597v5.33998c.0003.12482.03339.24742.09594.35542.06255.1081.15239.1978.26051.2602l4.62064 2.67c.10898.0607.23166.0926.35642.0926s.24744-.0319.35642-.0926l4.62068-2.67c.1081-.0624.1979-.1521.2605-.2602.0625-.108.0956-.2306.0959-.35542v-5.33998c.0004-.12497-.0324-.24781-.0951-.35597-.0626-.10815-.1528-.19776-.2613-.25968l-4.62068-2.66998c-.10796-.06375-.23105-.09732-.35642-.09722z" fill="url(#b)"/><path d="m4.07031 9.90245v-5.36591c0-.09281.03688-.18182.10251-.24745s.15464-.10249.24745-.10249h2.25522c.35995-.00705.71934.03215 1.06931.11664.25894.06249.50324.17475.71933.33052.17958.13091.32061.30774.40828.51196.08491.21665.12674.44779.12313.68046.00011.13392-.01954.26713-.05832.39531-.0394.12842-.10079.24903-.18146.35643-.09022.11712-.19981.21794-.32403.2981-.14561.09791-.30222.1784-.4666.23979.337.06021.64712.22319.88784.4666.19506.2364.29653.53619.28514.84247.00062.24751-.05014.49245-.14906.71934-.10233.22254-.25285.41955-.44067.57677-.20826.17739-.45097.30981-.71287.38881-.31462.0979-.6426.146-.97208.1426h-2.44316c-.04596 0-.09147-.0091-.13393-.0266-.04246-.0176-.08103-.0434-.11352-.0759-.0325-.0325-.05828-.0711-.07587-.1135-.01758-.0425-.02664-.08799-.02664-.13395zm1.29611-3.16251h1.23779c.14103-.0001.28185-.01094.42123-.03241.11134-.02189.21851-.06126.31755-.11664.08473-.0605.15364-.14053.20089-.2333.04792-.11477.07005-.23867.06481-.36292.00206-.12296-.01543-.24545-.05183-.36291-.03495-.08927-.09313-.16758-.16851-.22682-.08367-.06479-.18131-.10917-.28514-.12962-.13497-.02203-.27153-.03285-.40828-.03239h-1.29611zm0 .93968v1.50997h1.49701c.15425.00343.30788-.02072.45365-.07129.10461-.04022.19956-.10205.27866-.18145.06454-.0749.11109-.16358.13608-.25923.02607-.0928.03916-.18875.03888-.28514-.00087-.10102-.01613-.2014-.04534-.29811-.02922-.08723-.08058-.16539-.14906-.22682-.08582-.0641-.18238-.11237-.28515-.14257-.14423-.0346-.29242-.04986-.44067-.04536z" fill="url(#c)"/></svg>

<svg width="13" height="15" viewBox="0 0 13 15" fill="none" xmlns="http://www.w3.org/2000/svg">
<path d="M6.5 14.4322C6.17053 14.4345 5.84631 14.3496 5.56031 14.186L0.939691 11.516C0.654132 11.3511 0.416962 11.114 0.252022 10.8285C0.0870815 10.543 0.000169662 10.2191 2.07831e-06 9.88938V4.5494C-0.000489257 4.21954 0.0861454 3.89539 0.251151 3.60976C0.416157 3.32413 0.653689 3.08715 0.939691 2.92279L5.56031 0.252791C5.84579 0.0872053 6.16997 0 6.5 0C6.83003 0 7.15421 0.0872053 7.43969 0.252791L12.0603 2.92279C12.3463 3.08715 12.5838 3.32413 12.7488 3.60976C12.9139 3.89539 13.0005 4.21954 13 4.5494V9.88938C12.9998 10.2191 12.9129 10.543 12.748 10.8285C12.583 11.114 12.3459 11.3511 12.0603 11.516L7.43969 14.186C7.15369 14.3496 6.82947 14.4345 6.5 14.4322ZM6.5 1.16655C6.37463 1.16645 6.25154 1.20002 6.14358 1.26377L1.52294 3.93375C1.41437 3.99567 1.32418 4.08528 1.26156 4.19343C1.19894 4.30159 1.16613 4.42443 1.16649 4.5494V9.88938C1.16679 10.0142 1.19988 10.1368 1.26243 10.2448C1.32498 10.3529 1.41482 10.4426 1.52294 10.505L6.14358 13.175C6.25256 13.2357 6.37524 13.2676 6.5 13.2676C6.62476 13.2676 6.74744 13.2357 6.85642 13.175L11.4771 10.505C11.5852 10.4426 11.675 10.3529 11.7376 10.2448C11.8001 10.1368 11.8332 10.0142 11.8335 9.88938V4.5494C11.8339 4.42443 11.8011 4.30159 11.7384 4.19343C11.6758 4.08528 11.5856 3.99567 11.4771 3.93375L6.85642 1.26377C6.74846 1.20002 6.62537 1.16645 6.5 1.16655Z" fill="url(#paint0_linear_672_8569)"/>
<path d="M4.07031 9.90245V4.53654C4.07031 4.44373 4.10719 4.35472 4.17282 4.28909C4.23845 4.22346 4.32746 4.1866 4.42027 4.1866H6.67549C7.03544 4.17955 7.39483 4.21875 7.7448 4.30324C8.00374 4.36573 8.24804 4.47799 8.46413 4.63376C8.64371 4.76467 8.78474 4.9415 8.87241 5.14572C8.95732 5.36237 8.99915 5.59351 8.99554 5.82618C8.99565 5.9601 8.976 6.09331 8.93722 6.22149C8.89782 6.34991 8.83643 6.47052 8.75576 6.57792C8.66554 6.69504 8.55595 6.79586 8.43173 6.87602C8.28612 6.97393 8.12951 7.05442 7.96513 7.11581C8.30213 7.17602 8.61225 7.339 8.85297 7.58241C9.04803 7.81881 9.1495 8.1186 9.13811 8.42488C9.13873 8.67239 9.08797 8.91733 8.98905 9.14422C8.88672 9.36676 8.7362 9.56377 8.54838 9.72099C8.34012 9.89838 8.09741 10.0308 7.83551 10.1098C7.52089 10.2077 7.19291 10.2558 6.86343 10.2524H4.42027C4.37431 10.2524 4.3288 10.2433 4.28634 10.2258C4.24388 10.2082 4.20531 10.1824 4.17282 10.1499C4.14032 10.1174 4.11454 10.0788 4.09695 10.0364C4.07937 9.9939 4.07031 9.94841 4.07031 9.90245ZM5.36642 6.73994H6.60421C6.74524 6.73984 6.88606 6.729 7.02544 6.70753C7.13678 6.68564 7.24395 6.64627 7.34299 6.59089C7.42772 6.53039 7.49663 6.45036 7.54388 6.35759C7.5918 6.24282 7.61393 6.11892 7.60869 5.99467C7.61075 5.87171 7.59326 5.74922 7.55686 5.63176C7.52191 5.54249 7.46373 5.46418 7.38835 5.40494C7.30468 5.34015 7.20704 5.29577 7.10321 5.27532C6.96824 5.25329 6.83168 5.24247 6.69493 5.24293H5.39882L5.36642 6.73994ZM5.36642 7.67962V9.18959H6.86343C7.01768 9.19302 7.17131 9.16887 7.31708 9.1183C7.42169 9.07808 7.51664 9.01625 7.59574 8.93685C7.66028 8.86195 7.70683 8.77327 7.73182 8.67762C7.75789 8.58482 7.77098 8.48887 7.7707 8.39248C7.76983 8.29146 7.75457 8.19108 7.72536 8.09437C7.69614 8.00714 7.64478 7.92898 7.5763 7.86755C7.49048 7.80345 7.39392 7.75518 7.29115 7.72498C7.14692 7.69038 6.99873 7.67512 6.85048 7.67962H5.36642Z" fill="url(#paint1_linear_672_8569)"/>
<defs>
<linearGradient id="paint0_linear_672_8569" x1="1.89194" y1="2.93435" x2="12.1102" y2="10.6377" gradientUnits="userSpaceOnUse">
<stop stop-color="#FFCCAF"/>
<stop offset="0.98" stop-color="#FA4671"/>
</linearGradient>
<linearGradient id="paint1_linear_672_8569" x1="4.80798" y1="5.41928" x2="9.0045" y2="8.35367" gradientUnits="userSpaceOnUse">
<stop stop-color="#FFCCAF"/>
<stop offset="0.98" stop-color="#FA4671"/>
</linearGradient>
</defs>
</svg>
